packages/dnb-ui-lib/assets/icons/house_2_medium.svg

<svg width="24" height="24" viewBox="0 0 24 24" fill="none" xmlns="http://www.w3.org/2000/svg">
<path d="M3.74999 18V21.75C3.74999 22.567 4.43299 23.25 5.24999 23.25H8.74998C9.30227 23.25 9.74998 22.8022 9.74998 22.25V19.25C9.74998 18.433 10.433 17.75 11.25 17.75H12.75C13.567 17.75 14.25 18.433 14.25 19.25V22.25C14.25 22.8022 14.6977 23.25 15.25 23.25H18.75C19.567 23.25 20.25 22.567 20.25 21.75V18M0.749999 16.5L10.939 6.31099C11.0783 6.1716 11.2437 6.06102 11.4257 5.98558C11.6078 5.91014 11.8029 5.87131 12 5.87131C12.197 5.87131 12.3922 5.91014 12.5742 5.98558C12.7563 6.06102 12.9217 6.1716 13.061 6.31099L23.25 16.5M16.5 9.74998V8.24998H20.25V13.5M17.122 0.749999L16.715 1.293C16.5516 1.50689 16.477 1.77559 16.5068 2.0431C16.5366 2.31062 16.6685 2.55631 16.875 2.729C17.0814 2.90168 17.2133 3.14737 17.2431 3.41489C17.2729 3.6824 17.1984 3.9511 17.035 4.16499L16.628 4.70799M20.872 0.749999L20.465 1.293C20.3016 1.50689 20.227 1.77559 20.2568 2.0431C20.2866 2.31062 20.4185 2.55631 20.625 2.729C20.8314 2.90168 20.9633 3.14737 20.9931 3.41489C21.0229 3.6824 20.9484 3.9511 20.785 4.16499L20.378 4.70799" stroke="black" stroke-width="1.5" stroke-linecap="round" stroke-linejoin="round"/>
</svg>

<svg width="24" height="24" viewBox="0 0 24 24" fill="none" xmlns="http://www.w3.org/2000/svg"><path d="M3.75 18v3.75c0 .817.683 1.5 1.5 1.5h3.5a1 1 0 001-1v-3c0-.817.683-1.5 1.5-1.5h1.5c.817 0 1.5.683 1.5 1.5v3a1 1 0 001 1h3.5c.817 0 1.5-.683 1.5-1.5V18M.75 16.5L10.939 6.311a1.5 1.5 0 012.122 0L23.25 16.5M16.5 9.75v-1.5h3.75v5.25M17.122.75l-.407.543a1.045 1.045 0 00.16 1.436 1.045 1.045 0 01.16 1.436l-.407.543M20.872.75l-.407.543a1.045 1.045 0 00.16 1.436 1.045 1.045 0 01.16 1.436l-.407.543" stroke="#000" stroke-width="1.5" stroke-linecap="round" stroke-linejoin="round"/></svg>
